X:402
T:Alborada (MG 71)
R:Alborada
C:Versión del gaiteru José Rendueles
S:Música Tradicional Asturiana, (C) Tello & Tito. Asturies, 2001.
S:http://pagina.de/MusTradAst <telloytito@asturies.org>
A:Asturies
Z:Métodu de Gaita 71
E:Comp.
M:2/4
L:1/8
Q:1/4=200
K:C
|: ~G2 EG|c3 d|cBAB|c2 G2|~G2 EG|c3 d|cB AB|c4|
|~G2 EG|c3 d|cBAB|c2 G2|~G2 EG|c3 d|cB AB|c4|
|~e2 d2|c4|~e2 d2|c3 d|cdcd|c3 d|cdcd|c3 d|
|cBAB|G3 ~G|cBAB|c3 G|cBAB|G3 G|cBAB|c3 G|
|cBAB|G3 G|~cBAB|~cBAB|~cBAB|G3 ~G|EGEG|~D3 B,|
|DB,DE|C3 G|EGEG|~D3 B,|DB,DE|[1 C3 E :|[2 C3 G|
|EGEG|E3 ~G|EGEG|F3 ~G|FGFG|E3 ~G|EGEG|E3 ~G|
|EGEG|F3 ~G|FGFG|E3 ~G|cBAB|c3 G|cBAB|G3 G|
|cBAB|c3 G|cBAB|G3 G|~cBAB|~cBAB|~cBAB|G3 ~G|
|EGEG|~D3 B,|DB,DE|C3 ~G|EGEG|~D3 B,|DB,DE|C3 E|


